X: 127
T:Missa Quem dicunt homines / Gloria
N: Derived from Jos1003b-Missa_Quem_dicunt_homines-Gloria.krn
C: Josquin des Prez
%%abc-version 2.0
%%abcx-abcm2ps-target-version 5.9.1 (29 Sep 2008)
%%abc-creator hum2abc beta
%%abcx-conversion-date 2019/02/12 16:15:44
%%abc-edited-by Jesse Rodin
%%abc-edited-by Rob Wegman; Jesse Rodin (May 2013)
%%abcx-initial-encoding-date 2013/05/08/
%%humdrum-veritas 2476165431
%%humdrum-veritas-data 4138240050
%%linebreak <none>
%%barnumbers 0
L: 1/4
M: 2/1
Q: 1/2=120
%%staves [1 2 3 4]
V: 1 clef=treble
V: 2 clef=treble-8
V: 3 clef=treble-8
V: 4 clef=bass
K: C
[V:1] z8 | 
[V:2] c6c2 | 
[V:3] z8 | 
[V:4] z8 | 
[V:1] z2G4G2 | 
[V:2] d2e2c4- | 
[V:3] z8 | 
[V:4] z8 | 
[V:1] A2B2G3G | 
[V:2] c2d2e4 | 
[V:3] z8 | 
[V:4] z8 | 
[V:1] A2B2c3B/A/ | 
[V:2] f2ede4- | 
[V:3] z4c4 | 
[V:4] z8 | 
[V:1] G8 | 
[V:2] e2dcB2c2 | 
[V:3] c2c2d2e2 | 
[V:4] z4z2C,2 | 
[V:1] z2E2F2G2- | 
[V:2] G4z2e2 | 
[V:3] c3BA2G2- | 
[V:4] C,2C,2D,2E,2 | 
[V:1] GEA3GG2- | 
[V:2] e2f2e2d2- | 
[V:3] G2F2G4 | 
[V:4] C,2C4B,2 | 
[V:1] G2F2G3F/G/ | 
[V:2] dcc4B2 | 
[V:3] z2c2d2e2 | 
[V:4] A,4G,4 | 
[V:1] A2F3EE2- | 
[V:2] cBAGF2G2 | 
[V:3] fedcB2c2- | 
[V:4] F,3E,D,2C,2 | 
[V:1] E2D2E4 | 
[V:2] A4G4 | 
[V:3] c2BAB4 | 
[V:4] F,4E,4- | 
[V:1] z2B2B2B2 | 
[V:2] g4g4- | 
[V:3] e4e2e2 | 
[V:4] E,4z2E,2 | 
[V:1] c2BAG4 | 
[V:2] g2f2e4 | 
[V:3] e2dcB4 | 
[V:4] C,2D,2E,3F, | 
[V:1] z2G4G2- | 
[V:2] z2d2d2e2- | 
[V:3] z2B2B2B2 | 
[V:4] G,4z2E,2 | 
[V:1] G2F2E2E2 | 
[V:2] e2d2B2c2- | 
[V:3] c2A2G4 | 
[V:4] C,2D,2E,3F, | 
[V:1] D8 | 
[V:2] c2BAB3G | 
[V:3] z2g4g2 | 
[V:4] G,8 | 
[V:1] z8 | 
[V:2] ABcde4 | 
[V:3] f2e2g3f/e/ | 
[V:4] z2C4C2 | 
[V:1] z8 | 
[V:2] z4g4- | 
[V:3] d2e4dc | 
[V:4] B,2A,2C2B,A, | 
[V:1] z4z2c2- | 
[V:2] g2g2f2e2 | 
[V:3] B2d4G2- | 
[V:4] G,4z2C,2 | 
[V:1] c2c2B2A2 | 
[V:2] g2fed2c2 | 
[V:3] G2A2B2c2 | 
[V:4] E,2F,2G,2A,2 | 
[V:1] c3B/A/G3A | 
[V:2] f4d2g2- | 
[V:3] A4B3c | 
[V:4] F,4G,4- | 
[V:1] B2A4G2- | 
[V:2] g2fef2d2 | 
[V:3] dBc4B2 | 
[V:4] G,2A,2F,2G,2 | 
[V:1] G2^F2G4- | 
[V:2] d8- | 
[V:3] A4z2B2- | 
[V:4] D,4G,4- | 
[V:1] G8- | 
[V:2] d8 | 
[V:3] B2B2B4 | 
[V:4] G,8 | 
[V:1] G4z4 | 
[V:2] e6e2 | 
[V:3] c6c2 | 
[V:4] C,6C,2 | 
[V:1] G6G2 | 
[V:2] e4z4 | 
[V:3] G2c4BA | 
[V:4] C,4G,4- | 
[V:1] G4z4 | 
[V:2] d6c2 | 
[V:3] B4A4 | 
[V:4] G,2G,2D,2F,2- | 
[V:1] z4G4- | 
[V:2] A2c4BA | 
[V:3] z2e2e2e2 | 
[V:4] F,E,C,3D,E,F, | 
[V:1] G2G2D2F2- | 
[V:2] B2d3Gc2- | 
[V:3] d3cB2AG | 
[V:4] G,6F,E, | 
[V:1] F2EDE4 | 
[V:2] c2B2c3d | 
[V:3] A2F2G4 | 
[V:4] D,4C,4- | 
[V:1] z2G2c2c2 | 
[V:2] e8 | 
[V:3] z2c2c2c2 | 
[V:4] C,4z4 | 
[V:1] B2d3cBA | 
[V:2] z8 | 
[V:3] G4g3f | 
[V:4] z8 | 
[V:1] G2A2B2c2- | 
[V:2] z8 | 
[V:3] edc2d2e2 | 
[V:4] z8 | 
[V:1] cBAGA4 | 
[V:2] z2c2f2f2 | 
[V:3] f3e/d/c4- | 
[V:4] F,4F,2F,2 | 
[V:1] G4z2d2- | 
[V:2] e4g4- | 
[V:3] c2BAG4- | 
[V:4] C,4z4 | 
[V:1] d2d2A2c2- | 
[V:2] g2d2f2g2 | 
[V:3] G4z4 | 
[V:4] z4z2C2 | 
[V:1] c2BAB4 | 
[V:2] e4d4 | 
[V:3] z2g4g2 | 
[V:4] C2C2G,4 | 
[V:1] A4z2A2- | 
[V:2] z8 | 
[V:3] d2f4ed | 
[V:4] z2D4D2 | 
[V:1] A2G2E2G2- | 
[V:2] z8 | 
[V:3] e6dc | 
[V:4] A,2C4B,A, | 
[V:1] GFE2D2d2- | 
[V:2] g6g2 | 
[V:3] d2c4B2- | 
[V:4] B,2C2G,4- | 
[V:1] dGc4B2 | 
[V:2] d2f4ed | 
[V:3] B2AGA2G2- | 
[V:4] G,2F,E,F,2G,2 | 
[V:1] c2A2G2d2- | 
[V:2] e2f2d4 | 
[V:3] G2F2G4 | 
[V:4] C,2C4B,2 | 
[V:1] dcc4B2 | 
[V:2] e2f2g4- | 
[V:3] z2c2e2d2 | 
[V:4] C2A,2G,4 | 
[V:1] c4z4 | 
[V:2] g8 | 
[V:3] e3d/c/BAc2 | 
[V:4] C,4z2C,2 | 
[V:1] z8 | 
[V:2] z8 | 
[V:3] G2d3e/f/e2 | 
[V:4] E,2F,2G,F,G,A, | 
[V:1] z8 | 
[V:2] z8 | 
[V:3] d2edefg2- | 
[V:4] B,2C4B,2 | 
[V:1] z8 | 
[V:2] z8 | 
[V:3] gfe4dc | 
[V:4] C2C,2E,2F,2 | 
[V:1] z8 | 
[V:2] z8 | 
[V:3] BAd4c2 | 
[V:4] G,F,G,A,B,2C2- | 
[V:1] z4c4 | 
[V:2] z2f4e2 | 
[V:3] d4A4 | 
[V:4] C2B,2C4 | 
[V:1] B2B4AG | 
[V:2] e2dcd2c2- | 
[V:3] z8 | 
[V:4] z8 | 
[V:1] A2G4F2 | 
[V:2] c2B2c2A2 | 
[V:3] z8 | 
[V:4] z8 | 
[V:1] G2E2D4 | 
[V:2] G8 | 
[V:3] z4g4- | 
[V:4] z2C4B,2 | 
[V:1] z8 | 
[V:2] z4z2d2 | 
[V:3] g2fef2g2 | 
[V:4] B,2A,G,A,2G,2- | 
[V:1] z2C2G2G2 | 
[V:2] e2f2d2g2- | 
[V:3] G2A2B2G2 | 
[V:4] G,2F,2G,2E,2 | 
[V:1] A3Bc3B/A/ | 
[V:2] g2f2g2e2 | 
[V:3] d3c/d/e2c2- | 
[V:4] D,4z2C,2 | 
[V:1] G4z4 | 
[V:2] d4z4 | 
[V:3] c2B2c3d | 
[V:4] G,2G,2A,2C2- | 
[V:1] z2C2G2G2 | 
[V:2] z8 | 
[V:3] e4z4 | 
[V:4] CB,CA,B,2C2 | 
[V:1] A2c4B2 | 
[V:2] z2c2g2g2 | 
[V:3] z4z2G2 | 
[V:4] A,4G,4 | 
[V:1] A2d3cc2- | 
[V:2] a4g4- | 
[V:3] d2d2e4 | 
[V:4] z4z2C,2 | 
[V:1] c2B2c4- | 
[V:2] g4e3d | 
[V:3] d4z2A2- | 
[V:4] G,2G,2A,2C2- | 
[V:1] c4z4 | 
[V:2] e2f3ee2- | 
[V:3] A2F2G2A2- | 
[V:4] CB,CA,B,2C2 | 
[V:1] C4G2G2 | 
[V:2] e2dcd4 | 
[V:3] AGc4B2 | 
[V:4] A,4G,4 | 
[V:1] A2c3BcA | 
[V:2] e2fefga2- | 
[V:3] A2F2f4 | 
[V:4] z8 | 
[V:1] B2c2A4 | 
[V:2] agg4^f2 | 
[V:3] e4d4 | 
[V:4] z2C,2D,4 | 
[V:1] G4z4 | 
[V:2] g2e2fedc | 
[V:3] z8 | 
[V:4] z2C,2D,2F,2- | 
[V:1] c4d4 | 
[V:2] d2c4B2 | 
[V:3] z8 | 
[V:4] F,2E,2D,4 | 
[V:1] z2e2fedc | 
[V:2] c4z2a2- | 
[V:3] z2c2d2f2- | 
[V:4] C,4z2D,2- | 
[V:1] d2c4B2 | 
[V:2] a2g2a2gf | 
[V:3] f2e2d4 | 
[V:4] D,2E,2F,2G,2 | 
[V:1] c8- | 
[V:2] e8 | 
[V:3] c8- | 
[V:4] C,8 | 
[V:1] c8 | 
[V:2] g4g2e2 | 
[V:3] c4z4 | 
[V:4] z2C4C2 | 
[V:1] z8 | 
[V:2] f2gfede2- | 
[V:3] z8 | 
[V:4] A,2B,2CB,A,G, | 
[V:1] z8 | 
[V:2] e2dcB2A2 | 
[V:3] z8 | 
[V:4] A,4G,2C2 | 
[V:1] z2G2A2B2 | 
[V:2] c2d2edg2- | 
[V:3] z8 | 
[V:4] A,2B,2CB,A,G, | 
[V:1] cBcde2d2- | 
[V:2] g2^f2g4- | 
[V:3] z2c4B2 | 
[V:4] A,4G,4 | 
[V:1] dcc4B2 | 
[V:2] g4z4 | 
[V:3] c2e2d4 | 
[V:4] z2E,2F,2G,2 | 
[V:1] A4G4 | 
[V:2] z8 | 
[V:3] c3de3d/e/ | 
[V:4] A,G,A,B,C2C,2 | 
[V:1] z2G2F2A2- | 
[V:2] z2G2A3B | 
[V:3] f2e2c4 | 
[V:4] D,2E,2F,E,F,G, | 
[V:1] AGEFG4 | 
[V:2] cBcde2d2- | 
[V:3] z2c4B2 | 
[V:4] A,4G,4 | 
[V:1] C4F4 | 
[V:2] dcc4B2 | 
[V:3] A2G4F2 | 
[V:4] F,2E,2D,4 | 
[V:1] E8 ||  
[V:2] c8 ||  
[V:3] G8 ||  
[V:4] C,8 ||  
[V:1]  [K:C] [K:clef=treble][M:2/1]G4c4- | 
[V:2]  [K:C] [K:clef=treble-8][M:2/1]z4c4 | 
[V:3]  [K:C] [K:clef=treble-8][M:2/1]z8 | 
[V:4]  [K:C] [K:clef=bass][M:2/1]z8 | 
[V:1] c2c/B/A/G/A2A2 | 
[V:2] f6f/e/d/c/ | 
[V:3] z8 | 
[V:4] z8 | 
[V:1] B2B2G4 | 
[V:2] d2d2e2e2 | 
[V:3] G4c4- | 
[V:4] z4C,4 | 
[V:1] A8 | 
[V:2] c6f2- | 
[V:3] c2c/B/A/G/A2A2 | 
[V:4] F,6F,/E,/D,/C,/ | 
[V:1] F4E4- | 
[V:2] fedcB4 | 
[V:3] B2B2G2g2- | 
[V:4] D,2D,2E,2E,2 | 
[V:1] E4z4 | 
[V:2] c4z4 | 
[V:3] gfedc2BA | 
[V:4] C,6D,2 | 
[V:1] z8 | 
[V:2] z4z2f2- | 
[V:3] G2c4B2 | 
[V:4] E,2F,2D,4 | 
[V:1] z2c4B2 | 
[V:2] f2e2d4 | 
[V:3] c4G4 | 
[V:4] C,4z4 | 
[V:1] A4G2cB | 
[V:2] c2d2e4 | 
[V:3] z8 | 
[V:4] z4C,4 | 
[V:1] AGA3GG2- | 
[V:2] f6e2 | 
[V:3] c6c2 | 
[V:4] F,6F,/E,/D,/C,/ | 
[V:1] G2^F2G2G2 | 
[V:2] d4z4 | 
[V:3] A4G3F/G/ | 
[V:4] D,2D,2E,2E,2 | 
[V:1] c6c/B/A/G/ | 
[V:2] z8 | 
[V:3] A2G2c4 | 
[V:4] C,8 | 
[V:1] A2A2B2B2 | 
[V:2] d4g4- | 
[V:3] z4G4 | 
[V:4] z8 | 
[V:1] G8 | 
[V:2] g2g/f/e/d/e2e2 | 
[V:3] c6c/B/A/G/ | 
[V:4] z8 | 
[V:1] d6d/c/B/A/ | 
[V:2] f2f2d4 | 
[V:3] A2A2B2B2 | 
[V:4] D,4G,4- | 
[V:1] B8 | 
[V:2] g8 | 
[V:3] G4e4 | 
[V:4] G,2G,/F,/E,/D,/E,2E,2 | 
[V:1] A8 | 
[V:2] f8 | 
[V:3] d2c2d3c | 
[V:4] F,2F,2D,4 | 
[V:1] z4z2G2- | 
[V:2] d4g3f | 
[V:3] B3AG4- | 
[V:4] G,3F,E,3D, | 
[V:1] G2G2FEA2- | 
[V:2] e3dc4 | 
[V:3] G4z2c2- | 
[V:4] C,4F,3E, | 
[V:1] AGFEF2E2- | 
[V:2] z4z2c2- | 
[V:3] cBA4G2 | 
[V:4] C,2D,4E,2 | 
[V:1] E2D2E4 | 
[V:2] cBA4^G2 | 
[V:3] A4z2B2 | 
[V:4] F,4E,4 | 
[V:1] z2E2G2G2 | 
[V:2] A4z4 | 
[V:3] c2c2c2c2 | 
[V:4] z8 | 
[V:1] G2G2E2G2 | 
[V:2] z8 | 
[V:3] G2cBcde2 | 
[V:4] z8 | 
[V:1] FEDCD4 | 
[V:2] z2g2g2g2 | 
[V:3] d2c4B2 | 
[V:4] z4z2G,2 | 
[V:1] C4c3B | 
[V:2] g2g2e2g2 | 
[V:3] c2e3dc2- | 
[V:4] C2C2C2C2 | 
[V:1] AGG4^F2 | 
[V:2] f2e3dc2- | 
[V:3] c2B2c4 | 
[V:4] F,2G,2A,4 | 
[V:1] G4z2G2 | 
[V:2] c2BAB4 | 
[V:3] d3cd2e2 | 
[V:4] G,8 | 
[V:1] AGABc2C2 | 
[V:2] A4a4 | 
[V:3] f4e4- | 
[V:4] z2F,2A,G,A,B, | 
[V:1] CDEFG2G2 | 
[V:2] g3fe4 | 
[V:3] e4z2G2 | 
[V:4] C2C,2C,D,E,F, | 
[V:1] G2G3FED | 
[V:2] d4z4 | 
[V:3] BABcd2G2 | 
[V:4] G,2G,2G,2G,2 | 
[V:1] E2D2G4 | 
[V:2] z4z2G2 | 
[V:3] GABcd2d2 | 
[V:4] C,2G,4F,E, | 
[V:1] F4E3F | 
[V:2] A2B2cBcd | 
[V:3] d2d2G4 | 
[V:4] D,4C,4 | 
[V:1] GEF3EED/C/ | 
[V:2] e2d3cc2- | 
[V:3] z2_B3cA2 | 
[V:4] z8 | 
[V:1] D4E4- | 
[V:2] c2B2c4- | 
[V:3] G8 | 
[V:4] z4C,4- | 
[V:1] E4F4 | 
[V:2] c2c2c2d2 | 
[V:3] z2G2A4 | 
[V:4] C,4F,4 | 
[V:1] G4A4 | 
[V:2] e2g4^f2 | 
[V:3] B2c2A4 | 
[V:4] E,2C,2C4 | 
[V:1] D2G4^F2 | 
[V:2] g3fe2dc | 
[V:3] G4c4 | 
[V:4] B,2G,2A,4 | 
[V:1] G8 | 
[V:2] B8 | 
[V:3] z2d2d2d2 | 
[V:4] G,8- | 
[V:1] z2d2d2d2 | 
[V:2] z8 | 
[V:3] B2G2BABc | 
[V:4] G,8- | 
[V:1] B2G2BABc | 
[V:2] z8 | 
[V:3] d2e4d2- | 
[V:4] G,8 | 
[V:1] d2e3dd2- | 
[V:2] z4z2g2 | 
[V:3] d2c4B2 | 
[V:4] z8 | 
[V:1] dcc4B2 | 
[V:2] g2g2g3f | 
[V:3] c4z4 | 
[V:4] z2C,2G,4 | 
[V:1] A3G/F/E4- | 
[V:2] e4z4 | 
[V:3] z2A2A4 | 
[V:4] A,2C3B,CA, | 
[V:1] E8- | 
[V:2] z2a2a4 | 
[V:3] G2A2c2c2 | 
[V:4] B,2C2A,3G, | 
[V:1] E4z2c2- | 
[V:2] g6e2 | 
[V:3] B3AB2c2- | 
[V:4] E,3F,G,2A,2- | 
[V:1] c2B2A4 | 
[V:2] f2g2c4 | 
[V:3] c2def4 | 
[V:4] A,2G,2F,3E, | 
[V:1] G3EF2G2- | 
[V:2] z2c2d2e2- | 
[V:3] e4z4 | 
[V:4] C,4z4 | 
[V:1] GFE2D4 | 
[V:2] edc4B2 | 
[V:3] z8 | 
[V:4] z8 | 
[V:1] z8 | 
[V:2] c4z4 | 
[V:3] g3ef2g2- | 
[V:4] z2C2D2E2- | 
[V:1] z4z2G2 | 
[V:2] z4z2d2 | 
[V:3] gfe2d4 | 
[V:4] EDC4B,2 | 
[V:1] A2B3AG2- | 
[V:2] e2g3fed | 
[V:3] z2d2d2e2- | 
[V:4] A,2G,2B,2C2 | 
[V:1] G2^F2G4 | 
[V:2] c3decg2- | 
[V:3] edc4B2 | 
[V:4] A,4G,4 | 
[V:1] z2c2d2e2- | 
[V:2] g^f^feg2e2 | 
[V:3] A4G2g2 | 
[V:4] C3A,B,2C2- | 
[V:1] edc4B2 | 
[V:2] c4d4 | 
[V:3] e2f2g4- | 
[V:4] CB,A,2G,4 | 
[V:1] c4z2c2- | 
[V:2] e3fg4 | 
[V:3] g2e4dc | 
[V:4] z2C2C2C2 | 
[V:1] c2BAG3F | 
[V:2] z4z2c2 | 
[V:3] f4e4 | 
[V:4] A,2B,2C2C,D, | 
[V:1] G2A2F2ED | 
[V:2] c2c2A2B2 | 
[V:3] z8 | 
[V:4] E,C,F,4G,2 | 
[V:1] E4z4 | 
[V:2] c3de2f2- | 
[V:3] z2c2c2c2 | 
[V:4] E,2A,3G,F,E, | 
[V:1] z2G2G2G2 | 
[V:2] f2ede4- | 
[V:3] A2B2c4- | 
[V:4] F,2G,2C,4 | 
[V:1] E2F2G3A | 
[V:2] e2dcd2e2- | 
[V:3] c2BAG2g2- | 
[V:4] z8 | 
[V:1] B2c4BA | 
[V:2] edcBA2a2- | 
[V:3] gfedc2f2 | 
[V:4] z8 | 
[V:1] B8- | 
[V:2] a2g4fe | 
[V:3] e4d4 | 
[V:4] z2E,2G,2G,2 | 
[V:1] B4z4 | 
[V:2] dcBAG2g2- | 
[V:3] z2g3fe2- | 
[V:4] G,4E,2C,2 | 
[V:1] z2G2A2B2 | 
[V:2] gfedefg2- | 
[V:3] edc4B2 | 
[V:4] C3B,A,2G,2 | 
[V:1] c2BAB4 | 
[V:2] g2f2g4 | 
[V:3] e2dce2d2- | 
[V:4] A,4G,4 | 
[V:1] z2E2F2D2 | 
[V:2] z2G2A2B2 | 
[V:3] d2c2d4 | 
[V:4] F,2E,2D,4 | 
[V:1] E4z2G2 | 
[V:2] c6d2 | 
[V:3] z2G2A2B2 | 
[V:4] C,4z4 | 
[V:1] A2B2cBcd | 
[V:2] e2g4f2 | 
[V:3] c2d4c2- | 
[V:4] z2G,2A,3B, | 
[V:1] e2d2z2G2 | 
[V:2] e2g3fed | 
[V:3] c2B2c2e2 | 
[V:4] C2G,2C3B, | 
[V:1] A2B2cBcd | 
[V:2] c2d2e3f | 
[V:3] f2g3fed | 
[V:4] A,2G,2C4- | 
[V:1] e2d4c2- | 
[V:2] g4a4 | 
[V:3] c2d2e2f2 | 
[V:4] C2B,2A,2F,2 | 
[V:1] c2B2c4 |]  
[V:2] g4e4 |]  
[V:3] d4c4 |]  
[V:4] G,4C,4 |]  



